source/assets/images/icons/buoy.svg

<?xml version="1.0" encoding="UTF-8" standalone="no"?>
<!DOCTYPE svg PUBLIC "-//W3C//DTD SVG 1.1//EN" "http://www.w3.org/Graphics/SVG/1.1/DTD/svg11.dtd">
<svg width="100%" height="100%" viewBox="0 0 20 20" version="1.1" xmlns="http://www.w3.org/2000/svg" xmlns:xlink="http://www.w3.org/1999/xlink" xml:space="preserve" xmlns:serif="http://www.serif.com/" style="fill-rule:evenodd;clip-rule:evenodd;stroke-linejoin:round;stroke-miterlimit:2;">
    <path d="M17.16,6.42C16.384,4.872 15.128,3.616 13.58,2.84L12.24,5.53C13.203,6.014 13.986,6.797 14.47,7.76L17.16,6.42ZM17.16,13.58L14.47,12.24C13.986,13.203 13.203,13.986 12.24,14.47L13.58,17.16C15.128,16.384 16.384,15.128 17.16,13.58ZM6.42,2.84C4.872,3.616 3.616,4.872 2.84,6.42L5.53,7.76C6.014,6.797 6.797,6.014 7.76,5.53L6.42,2.84ZM2.84,13.58C3.616,15.128 4.872,16.384 6.42,17.16L7.76,14.47C6.797,13.986 6.014,13.203 5.53,12.24L2.84,13.58ZM10,20C4.514,20 0,15.486 0,10C-0,4.514 4.514,0 10,0C15.486,-0 20,4.514 20,10C20,15.486 15.486,20 10,20ZM10,13C11.646,13 13,11.646 13,10C13,8.354 11.646,7 10,7C8.354,7 7,8.354 7,10C7,11.646 8.354,13 10,13Z" style="fill-rule:nonzero;"/>
</svg>

<svg xmlns="http://www.w3.org/2000/svg" viewBox="0 0 20 20" class="h-5 w-5"><path d="M17.16 6.42a8.03 8.03 0 0 0-3.58-3.58l-1.34 2.69a5.02 5.02 0 0 1 2.23 2.23l2.69-1.34zm0 7.16l-2.69-1.34a5.02 5.02 0 0 1-2.23 2.23l1.34 2.69a8.03 8.03 0 0 0 3.58-3.58zM6.42 2.84a8.03 8.03 0 0 0-3.58 3.58l2.69 1.34a5.02 5.02 0 0 1 2.23-2.23L6.42 2.84zM2.84 13.58a8.03 8.03 0 0 0 3.58 3.58l1.34-2.69a5.02 5.02 0 0 1-2.23-2.23l-2.69 1.34zM10 20a10 10 0 1 1 0-20 10 10 0 0 1 0 20zm0-7a3 3 0 1 0 0-6 3 3 0 0 0 0 6z"/></svg>
